X:1
T:Dr. Albertino
R: tango
L:1/8
Q:1/4=120
M:4/4
K:C
z            A  fd  _B2 A2 | 2^G       2B   d/f/   e3   | z      A       e^c A2 G2 | 2F    2A ^c/e/ d3          |
^G,A,        DF _BA =GF    | F/G/F/E/- E2   B,/A,/ G,3  | z      A,      ^CE AG FE | G/^F/ =F6 z                |
z            A  fd  _BF A2 | 2^G       2B   d/f/   e3   | z      A       e^c A2 G2 | 2F    2A ^c/e/ d2 [G,_B,]- |
[G,_B,]B,/D/ GF ED  ^CD    | E/F/E/D/- D_B, A,F,   E,D, | D,A,DF E,A,^CE           | D8                         |

